X:1
T: Crystal Spring
N:
C:
S:
A:
O:
R:
M:3/4
K:G
I:speed 150
%W: A1
% voice 1 (1 lines, 32 notes)
K:G
M:3/4
L:1/16
D4 |G4 G2 A2 B2 c2 |d8 d2 B2 |A4 A2 B2 c2 d2 |e8 g2 e2 |d4 g2 d2 B2 A2 |G4 A4 e4 |d4 B4 B3 A |B8 B2 d2 |
%W: A2
% voice 1 (1 lines, 30 notes)
e6 d2 e4/3 |f4/3 g4/3 B8 |B2 A2 B4 E4 |A2 A2 G4 F4 |D4 G2 A2 B2 c2 |d2 B2 e4 d4 |B2 A2 B4 E4 |F4 G8 |D4
%W: B1
% voice 1 (1 lines, 31 notes)
G4 G2 A2 |B2 c2 d8 |d2 B2 A4 A2 B2 |c2 d2 e8 |g2 e2 d4 g2 d2 |B2 A2 G4 A4 |e4 d4 B4 |B3 A B8 |B2 d2
%W: B2
% voice 1 (1 lines, 29 notes)
e6 d2 |e4/3 f4/3 g4/3 |B8 B2 A2 |B4 E4 A2 A2 |G4 F4 D4 |G2 A2 B2 c2 d2 B2 |e4 d4 B2 A2 |B4 E4 F4 |G8 ||
